X: 113
T: the Scotch Fidler
B: 204 Favourite Country Dances
N: Published by Straight & Skillern, London ca.1775
F: http://imslp.org/wiki/204_Favourite_Country_Dances_(Various) p.57 #113
Z: 2014 John Chambers <jc:trillian.mit.edu>
M: 6/8
L: 1/8
K: C
% - - - - - - - - - - - - - - - - - - - - - - - - -
|:\
cBc AGF | E2G c2f | ece fae | fdd d2e |\
cBc AGF | ECG ceg | faf ecg | ecc c3 :|
|:\
gfe afd | fed gec | Bcd gea | fdd d2e |\
cBc AGF | EFG ceg | afd agf | ecc c3 :|
% - - - - - - - - - - - - - - - - - - - - - - - - -
%%begintext align
%% Hands across Back again cross over 1 Cu.
%% Right and Left at top
%%endtext

%%sep 1 1 500
%%sep 1 1 500
